src/assets/svg/syringe.svg

<svg fill="none" height="64" viewBox="0 0 64 64" width="64" xmlns="http://www.w3.org/2000/svg"><path d="m0 0h64v64h-64z"/><path clip-rule="evenodd" d="m59.4319 4.56426c.7575.75234.7575 1.97214 0 2.72448l-7.4523 7.40146c1.431 1.6215 1.3679 4.0904-.1896 5.6371l-2.3513 2.3353c1.4068 1.3972 1.4068 3.6626 0 5.0598l-18.0342 17.9111c1.2152 1.4056 1.1523 3.526-.1886 4.8578l-3.1351 3.1137c-1.4068 1.3972-3.6877 1.3972-5.0945 0l-2.1554-2.1407-.6178.6136c1.0323 1.3996.9116 3.3759-.3619 4.6408l-4.3108 4.2813-12.5404-12.4548 4.31077-4.2813c1.27355-1.2649 3.26343-1.3847 4.67273-.3595l.6178-.6136-2.3514-2.3352c-1.40679-1.3972-1.40679-3.6626 0-5.0598l3.1351-3.1137c1.3409-1.3317 3.4759-1.3941 4.8912-.1872l18.0343-17.9111c1.4068-1.3972 3.6877-1.3972 5.0945 0l2.3513-2.3353c1.4904-1.4802 3.831-1.6014 5.4606-.3635l7.4717-7.42074c.7576-.75235 1.9857-.75235 2.7433 0zm-43.8915 50.98674 1.3716-1.3622-2.1554-2.1407 3.3311-3.3083-2.7432-2.7245-3.3311 3.3083-2.15536-2.1406-1.37161 1.3622zm18.6147-33.2776 2.5473 2.5299c.7575.7523 1.9857.7523 2.7432 0 .7575-.7524.7575-1.9722 0-2.7245l-2.5473-2.5299 1.9594-1.946 2.5473 2.5298 5.0946-5.0597c.1082-.1075.2836-.1075.3918 0l2.1554 2.1406c.1082.1075.1082.2818 0 .3893l-5.0945 5.0597 2.5473 2.5299-20.5742 20.4336 2.3514 2.3353-2.7432 2.7245-12.3445-12.2602 2.7432-2.7245 2.3513 2.3353 2.7432-2.7245 2.5473 2.5299c.7575.7523 1.9857.7523 2.7432 0 .7576-.7524.7575-1.9722 0-2.7245l-2.5472-2.5299 4.1148-4.0867 2.5473 2.5299c.7575.7523 1.9857.7523 2.7432 0 .7575-.7524.7575-1.9722 0-2.7245l-2.5473-2.5299z" fill="#000" fill-rule="evenodd"/></svg>

<svg width="64" height="64" viewBox="0 0 64 64" fill="none" xmlns="http://www.w3.org/2000/svg">
  <rect width="64" height="64" />
  <path fill-rule="evenodd" clip-rule="evenodd" d="M59.4319 4.56426C60.1894 5.3166 60.1894 6.5364 59.4319 7.28874L51.9796 14.6902C53.4106 16.3117 53.3475 18.7806 51.79 20.3273L49.4387 22.6626C50.8455 24.0598 50.8455 26.3252 49.4387 27.7224L31.4045 45.6335C32.6197 47.0391 32.5568 49.1595 31.2159 50.4913L28.0808 53.605C26.674 55.0022 24.3931 55.0022 22.9863 53.605L20.8309 51.4643L20.2131 52.0779C21.2454 53.4775 21.1247 55.4538 19.8512 56.7187L15.5404 61L3 48.5452L7.31077 44.2639C8.58432 42.999 10.5742 42.8792 11.9835 43.9044L12.6013 43.2908L10.2499 40.9556C8.84311 39.5584 8.84311 37.293 10.2499 35.8958L13.385 32.7821C14.7259 31.4504 16.8609 31.388 18.2762 32.5949L36.3105 14.6838C37.7173 13.2866 39.9982 13.2866 41.405 14.6838L43.7563 12.3485C45.2467 10.8683 47.5873 10.7471 49.2169 11.985L56.6886 4.56426C57.4462 3.81191 58.6743 3.81191 59.4319 4.56426ZM15.5404 55.551L16.912 54.1888L14.7566 52.0481L18.0877 48.7398L15.3445 46.0153L12.0134 49.3236L9.85804 47.183L8.48643 48.5452L15.5404 55.551ZM34.1551 22.2734L36.7024 24.8033C37.4599 25.5556 38.6881 25.5556 39.4456 24.8033C40.2031 24.0509 40.2031 22.8311 39.4456 22.0788L36.8983 19.5489L38.8577 17.6029L41.405 20.1327L46.4996 15.073C46.6078 14.9655 46.7832 14.9655 46.8914 15.073L49.0468 17.2136C49.155 17.3211 49.155 17.4954 49.0468 17.6029L43.9523 22.6626L46.4996 25.1925L25.9254 45.6261L28.2768 47.9614L25.5336 50.6859L13.1891 38.4257L15.9323 35.7012L18.2836 38.0365L21.0268 35.312L23.5741 37.8419C24.3316 38.5942 25.5598 38.5942 26.3173 37.8419C27.0749 37.0895 27.0748 35.8697 26.3173 35.1174L23.7701 32.5875L27.8849 28.5008L30.4322 31.0307C31.1897 31.783 32.4179 31.783 33.1754 31.0307C33.9329 30.2783 33.9329 29.0585 33.1754 28.3062L30.6281 25.7763L34.1551 22.2734Z" fill="black" />
</svg>
